svg/media/horn_2_fill.svg

<?xml version="1.0" encoding="UTF-8"?>
<svg width="24px" height="24px" viewBox="0 0 24 24" version="1.1" xmlns="http://www.w3.org/2000/svg" xmlns:xlink="http://www.w3.org/1999/xlink">
    <title>horn_fill</title>
    <g id="Icon" stroke="none" stroke-width="1" fill="none" fill-rule="evenodd">
        <g id="Media" transform="translate(-864.000000, -240.000000)">
            <g id="horn_fill" transform="translate(864.000000, 240.000000)">
                <path d="M24,0 L24,24 L0,24 L0,0 L24,0 Z M12.5935,23.2578 L12.5819,23.2595 L12.5109,23.295 L12.4919,23.2987 L12.4767,23.295 L12.4057,23.2595 C12.3958,23.2564 12.387,23.259 12.3821,23.2649 L12.378,23.2758 L12.3609,23.7031 L12.3659,23.7235 L12.3769,23.7357 L12.4805,23.8097 L12.4953,23.8136 L12.5071,23.8097 L12.6107,23.7357 L12.6233,23.7197 L12.6267,23.7031 L12.6096,23.2758 C12.6076,23.2657 12.601,23.2593 12.5935,23.2578 Z M12.8584,23.1453 L12.8445,23.1473 L12.6598,23.2397 L12.6499,23.2499 L12.6472,23.2611 L12.6651,23.6906 L12.6699,23.7034 L12.6784,23.7105 L12.8793,23.8032 C12.8914,23.8069 12.9022,23.803 12.9078,23.7952 L12.9118,23.7812 L12.8777,23.1665 C12.8753,23.1546 12.8674,23.147 12.8584,23.1453 Z M12.143,23.1473 C12.1332,23.1424 12.1222,23.1453 12.1156,23.1526 L12.1099,23.1665 L12.0758,23.7812 C12.0751,23.7927 12.0828,23.8019 12.0926,23.8046 L12.1083,23.8032 L12.3092,23.7105 L12.3186,23.7024 L12.3225,23.6906 L12.3404,23.2611 L12.3372,23.2485 L12.3278,23.2397 L12.143,23.1473 Z" id="MingCute" fill-rule="nonzero"></path>
                <path d="M20.2553,5.52027 C19.9237,4.43292 18.7908,4.01579 17.861,4.32572 L7,7.94605 L5.63246,7.4902 C4.33739,7.05851 3,8.02245 3,9.38757 L3,13.6127 C3,14.9778 4.33739,15.9418 5.63246,15.5101 L7,15.0542 L7.77774,15.3135 L7.50897,15.9406 C7.04805,17.0161 7.60477,18.2558 8.7148,18.6258 L13.8109,20.3245 C14.7977,20.6534 15.8719,20.171 16.2816,19.215 L16.6817,18.2815 L17.861,18.6746 C18.7908,18.9845 19.9237,18.5674 20.2553,17.48 C20.5797,16.4165 21,14.4652 21,11.5001 C21,8.53506 20.5797,6.58374 20.2553,5.52027 Z M14.7777,17.6468 L9.68168,15.9481 L9.34726,16.7284 L14.4433,18.4271 L14.7777,17.6468 Z" id="形状" fill="#09244B"></path>
            </g>
        </g>
    </g>
</svg>

<svg xmlns="http://www.w3.org/2000/svg" width="24" height="24"><g fill="none" fill-rule="evenodd"><path d="M24 0v24H0V0h24ZM12.594 23.258l-.012.002-.071.035-.02.004-.014-.004-.071-.036c-.01-.003-.019 0-.024.006l-.004.01-.017.428.005.02.01.013.104.074.015.004.012-.004.104-.074.012-.016.004-.017-.017-.427c-.002-.01-.009-.017-.016-.018Zm.264-.113-.014.002-.184.093-.01.01-.003.011.018.43.005.012.008.008.201.092c.012.004.023 0 .029-.008l.004-.014-.034-.614c-.003-.012-.01-.02-.02-.022Zm-.715.002a.023.023 0 0 0-.027.006l-.006.014-.034.614c0 .012.007.02.017.024l.015-.002.201-.093.01-.008.003-.011.018-.43-.003-.012-.01-.01-.184-.092Z"/><path fill="#09244B" d="M20.255 5.52c-.331-1.087-1.464-1.504-2.394-1.194L7 7.946 5.632 7.49A2 2 0 0 0 3 9.388v4.225a2 2 0 0 0 2.632 1.897L7 15.054l.778.26-.269.627a2 2 0 0 0 1.206 2.685l5.096 1.698a2 2 0 0 0 2.47-1.109l.4-.933 1.18.393c.93.31 2.063-.108 2.394-1.195.325-1.064.745-3.015.745-5.98 0-2.965-.42-4.916-.745-5.98Zm-5.477 12.127-5.096-1.699-.335.78 5.096 1.7.335-.781Z"/></g></svg>
